img/yt.svg

<svg width="17" height="12" viewBox="0 0 17 12" fill="none" xmlns="http://www.w3.org/2000/svg">
<path id="Youtube_red " fill-rule="evenodd" clip-rule="evenodd" d="M6.66935 8.17001L6.66882 3.46943L11.2106 5.82782L6.66935 8.17001ZM16.6417 2.65494C16.6417 2.65494 16.4773 1.50214 15.9735 0.994496C15.3342 0.327914 14.6177 0.324777 14.2894 0.286089C11.9371 0.116699 8.40859 0.116699 8.40859 0.116699H8.40123C8.40123 0.116699 4.87275 0.116699 2.52042 0.286089C2.19158 0.324777 1.47559 0.327914 0.835763 0.994496C0.331994 1.50214 0.168098 2.65494 0.168098 2.65494C0.168098 2.65494 0 4.00902 0 5.36257V6.63195C0 7.98603 0.168098 9.33958 0.168098 9.33958C0.168098 9.33958 0.331994 10.4924 0.835763 11C1.47559 11.6666 2.31555 11.6457 2.68957 11.7152C4.03436 11.8438 8.40491 11.8836 8.40491 11.8836C8.40491 11.8836 11.9371 11.8783 14.2894 11.709C14.6177 11.6697 15.3342 11.6666 15.9735 11C16.4773 10.4924 16.6417 9.33958 16.6417 9.33958C16.6417 9.33958 16.8098 7.98603 16.8098 6.63195V5.36257C16.8098 4.00902 16.6417 2.65494 16.6417 2.65494Z" fill="#8D8D8D"/>
</svg>

<svg width="17" height="12" viewBox="0 0 17 12" fill="none" xmlns="http://www.w3.org/2000/svg"><path fill-rule="evenodd" clip-rule="evenodd" d="M6.67 8.17v-4.7l4.54 2.36-4.54 2.34Zm9.97-5.52S16.48 1.5 15.97 1C15.33.33 14.62.32 14.3.3 11.94.12 8.4.12 8.4.12s-3.54 0-5.89.17C2.19.32 1.48.33.84.99.34 1.5.17 2.65.17 2.65S0 4.01 0 5.36v1.27C0 8 .17 9.34.17 9.34S.33 10.49.84 11c.64.67 1.48.65 1.85.72 1.34.12 5.71.16 5.71.16s3.54 0 5.89-.17c.33-.04 1.04-.04 1.68-.71.5-.5.67-1.66.67-1.66s.17-1.35.17-2.7V5.35c0-1.35-.17-2.7-.17-2.7Z" fill="#8D8D8D"/></svg>
